src/assets/img/providers-white/wazdan.svg

<svg width="128" height="14" viewBox="0 0 128 14" fill="none" xmlns="http://www.w3.org/2000/svg">
<g clip-path="url(#clip0_4046_7159)">
<path fill-rule="evenodd" clip-rule="evenodd" d="M13.0989 13.7743L0.417284 1.28717C-0.0615092 0.810745 0.277459 0 0.959636 0H13.6413C14.065 0 14.404 0.338508 14.404 0.752236V13.2436C14.404 13.9122 13.582 14.2508 13.0989 13.7743ZM15.9331 13.2436V0.752236C15.9331 0.334329 16.2763 0 16.6958 0H29.3775C30.0596 0 30.3986 0.810745 29.9198 1.28717L17.2381 13.7785C16.7551 14.2508 15.9331 13.9164 15.9331 13.2478V13.2436ZM31.4749 0.752236V13.2436V13.2478C31.4749 13.9164 32.2969 14.2508 32.7799 13.7785L45.4616 1.28717C45.9404 0.810745 45.6014 0 44.9192 0H32.2375C31.8181 0 31.4749 0.334328 31.4749 0.752236ZM63.0879 0V8.62147L60.0375 2.51582H58.2875L55.1983 8.6842V0H52.4402V14H55.1773L59.1307 6.36898L63.1261 14H65.8254V0H63.0879ZM75.0788 8.94745L73.4731 4.01612L71.8674 8.94745H75.0788ZM67.1554 13.9958L72.0963 0H74.8543L79.799 13.9958H76.7314L75.8671 11.3379H71.1088L70.2445 13.9958H67.1554ZM80.3627 0V2.41552H86.1291L80.3627 12.1319V14H89.9597V11.6054H84.0275L89.7562 1.86806V0H80.3627ZM99.4593 6.08478V7.91102C99.4593 10.3266 98.7981 11.6054 96.8833 11.6054H94.7182V2.41134H96.8833C98.7981 2.41134 99.4593 3.66925 99.4593 6.08478ZM91.8368 0V13.9958H96.8833C100.095 13.9958 102.341 12.3534 102.341 7.91102V6.08478C102.341 1.62149 100.095 0 96.8833 0H91.8368ZM109.145 4.01612L110.751 8.94745H107.539L109.145 4.01612ZM107.768 0L102.828 13.9958H105.917L106.781 11.3379H111.539L112.404 13.9958H115.472L110.527 0H107.768ZM124.768 8.78446V0H127.505V14H125.098L119.556 5.33672V14H116.814V0H119.204L124.768 8.78446Z" fill="white"/>
</g>
<defs>
<clipPath id="clip0_4046_7159">
<rect width="127.615" height="14" fill="white" transform="translate(0.192314)"/>
</clipPath>
</defs>
</svg>

<svg xmlns="http://www.w3.org/2000/svg" width="128" height="14" fill="none"><g clip-path="url(#a)"><path fill="#fff" fill-rule="evenodd" d="M13.099 13.774.417 1.287C-.062.811.277 0 .96 0H13.64c.424 0 .763.339.763.752v12.492c0 .668-.822 1.007-1.305.53Zm2.834-.53V.752c0-.418.343-.752.763-.752h12.681c.683 0 1.022.81.543 1.287L17.238 13.78c-.483.472-1.305.137-1.305-.531v-.004ZM31.475.752v12.496c0 .668.822 1.003 1.305.53l12.682-12.49C45.94.81 45.602 0 44.919 0H32.238a.757.757 0 0 0-.763.752ZM63.088 0v8.621l-3.05-6.105h-1.75l-3.09 6.168V0H52.44v14h2.737l3.954-7.631L63.126 14h2.7V0h-2.738Zm11.99 8.947-1.605-4.93-1.606 4.93h3.212Zm-7.923 5.049L72.096 0h2.758L79.8 13.996h-3.068l-.864-2.658H71.11l-.864 2.658h-3.09ZM80.363 0v2.416h5.766l-5.766 9.716V14h9.597v-2.395h-5.932l5.728-9.737V0h-9.393Zm19.096 6.085V7.91c0 2.416-.66 3.694-2.576 3.694h-2.165V2.411h2.165c1.915 0 2.576 1.258 2.576 3.674ZM91.837 0v13.996h5.046c3.212 0 5.458-1.643 5.458-6.085V6.085c0-4.464-2.246-6.085-5.458-6.085h-5.046Zm17.308 4.016 1.606 4.931h-3.212l1.606-4.93ZM107.768 0l-4.94 13.996h3.089l.864-2.658h4.758l.865 2.658h3.068L110.527 0h-2.759Zm17 8.784V0h2.737v14h-2.407l-5.542-8.663V14h-2.742V0h2.39l5.564 8.784Z" clip-rule="evenodd"/></g><defs><clipPath id="a"><path fill="#fff" d="M.192 0h127.615v14H.192z"/></clipPath></defs></svg>
